; generated by PrusaSlicer 2.6.1+win64 on 2023-11-13 at 15:18:42 UTC
;
;
;
;
;
;
;
; external perimeters extrusion width = 0.45mm
; perimeters extrusion width = 0.45mm
; infill extrusion width = 0.45mm
; solid infill extrusion width = 0.45mm
; top infill extrusion width = 0.40mm
; first layer extrusion width = 0.50mm
;TYPE:Custom
M140 S60 ; set bed temp
M104 S170 ; set extruder temp for bed leveling
M109 R170 ; wait for temp
M84 E ; turn off E motor
G28 ; home all without mesh bed level
G1 X42 Y-4 Z5 F4800
G1 E-2 F2400 ; retraction
M84 E ; turn off E motor
M106 S100
G0 Z40 F10000
M190 S60 ; wait for bed temp
;
; MBL
;
M84 E ; turn off E motor
; prepare for purge
M104 S215
G0 X0 Y-4 Z15 F4800 ; move away and ready for the purge
M109 S215
G92 E0
;
; Extrude purge line
;
G92 E0 ; reset extruder position
G1 E2 F2400 ; deretraction after the initial one before nozzle cleaning
G0 E7 X15 Z0.2 F500 ; purge
G0 X25 E4 F500 ; purge
G0 X35 E4 F650 ; purge
G0 X45 E4 F800 ; purge
G0 X48 Z0.05 F8000 ; wipe, move close to the bed
G0 X51 Z0.2 F8000 ; wipe, move quickly away from the bed
G92 E0
M221 S100 ; set flow to 100%
;LAYER_CHANGE
;Z:0.2
;HEIGHT:0.2
;BEFORE_LAYER_CHANGE
G92 E0.0
;0.2
G1 E-.8 F2100
G1 Z.2 F720
;AFTER_LAYER_CHANGE
;0.2
; printing object 137740-CM-W4503_Upr1.stl id:0 copy 0
G1 Z.4
G1 X170.269 Y81.767 F12000
G1 Z.2 F720
G1 E.8 F1500
;TYPE:External perimeter
;WIDTH:0.611034
G1 F1200
G1 X170.106 Y81.587 E.01147
;WIDTH:0.562434
G1 X169.942 Y81.406 E.01055
;WIDTH:0.513834
G1 X169.868 Y81.274 E.00593
G1 X169.974 Y81.058 E.00942
G1 X170.139 Y80.995 E.00692
G1 X170.253 Y81.033 E.00471
G1 X170.383 Y81.184 E.0078
G1 X170.364 Y81.275 E.00364
;WIDTH:0.562434
G1 X170.317 Y81.521 E.01082
;WIDTH:0.611034
G1 X170.281 Y81.708 E.009
G1 E-.64 F2100
;WIPE_START
G1 F9600
G1 X170.106 Y81.587 E-.04421
G1 X169.942 Y81.406 E-.05076
G1 X169.868 Y81.274 E-.03145
G1 X169.939 Y81.129 E-.03358
;WIPE_END
G1 Z.4 F720
G1 X170.207 Y86.554 F12000
G1 Z.2 F720
G1 E.8 F1500
;WIDTH:0.560538
G1 F1200
G1 X169.741 Y86.435 E.0207
G1 E-.64 F2100
;WIPE_START
G1 F9600
G1 X170.207 Y86.554 E-.09995
;WIPE_END
G1 E-.06005 F2100
G1 Z.4 F720
G1 X169.079 Y89.036 F12000
G1 Z.2 F720
G1 E.8 F1500
;WIDTH:0.57347
G1 F1200
G1 X168.979 Y89.225 E.00943
G1 X169.079 Y89.036 F12000
;WIDTH:0.567038
G1 F1200
G1 X169.079 Y88.989 E.00205
;WIDTH:0.558751
G1 X169.032 Y88.736 E.01104
;WIDTH:0.529375
G1 X168.984 Y88.484 E.01038
;WIDTH:0.499999
G1 X169.075 Y88.134 E.01374
G1 X169.279 Y87.937 E.01078
G1 X169.551 Y87.935 E.01034
G1 X169.833 Y88.087 E.01218
G1 X169.944 Y88.286 E.00866
G1 X169.867 Y88.54 E.01009
G1 X169.602 Y88.789 E.01382
;WIDTH:0.518196
G1 X169.273 Y88.879 E.01348
;WIDTH:0.567038
G1 X169.126 Y88.998 E.00824
G1 X169.213 Y89.838 F12000
;WIDTH:0.520306
G1 F1200
G1 X169.339 Y89.906 E.00568
G1 E-.64 F2100
;WIPE_START
G1 F9600
G1 X169.213 Y89.838 E-.02975
;WIPE_END
G1 E-.13025 F2100
G1 Z.4 F720
G1 X169.468 Y88.32 F12000
G1 Z.2 F720
G1 E.8 F1500
;TYPE:Perimeter
;WIDTH:0.440682
G1 F1200
G1 X169.394 Y88.363 E.00283
G1 X169.468 Y88.406 E.00283
G1 X169.493 Y88.363 E.00165
G1 E-.64 F2100
;WIPE_START
G1 F9600
G1 X169.468 Y88.406 E-.01034
G1 X169.394 Y88.363 E-.01779
G1 X169.468 Y88.32 E-.01779
;WIPE_END
G1 E-.11408 F2100
G1 Z.4 F720
G1 X172.511 Y71.702 F12000
G1 Z.2 F720
G1 E.8 F1500
;WIDTH:0.499999
G1 F1200
G1 X172.509 Y71.803 E.00384
G1 X172.45 Y71.777 E.00245
G1 X171.928 Y71.706 E.02002
G1 X171.469 Y71.82 E.01797
G1 X171.084 Y72.111 E.01834
G1 X170.826 Y72.541 E.01906
G1 X170.749 Y72.984 E.01709
G1 X170.821 Y73.439 E.01751
G1 X171.019 Y73.778 E.01492
G1 X171.356 Y74.085 E.01733
;WIDTH:0.522725
G1 X171.69 Y74.271 E.01525
G1 X171.087 Y74.201 E.02422
;WIDTH:0.499999
G1 X170.54 Y74.388 E.02197
G1 X170.323 Y74.522 E.00969
G1 X170.042 Y74.902 E.01796
G1 X169.895 Y75.383 E.01912
G1 X169.911 Y75.872 E.0186
G1 X170.127 Y76.266 E.01708
G1 X170.428 Y76.583 E.01661
G1 X170.787 Y76.784 E.01564
G1 X172.893 Y77.499 E.08453
G1 X173.522 Y77.643 E.02452
G1 X174.074 Y77.649 E.02098
G1 X173.595 Y79.073 E.0571
G1 X173.37 Y79.871 E.03151
G1 X173.017 Y79.58 E.01739
G1 X172.809 Y79.467 E.009
G1 X172.299 Y79.301 E.02038
G1 X171.761 Y79.288 E.02045
G1 X171.411 Y79.365 E.01362
G1 X171.17 Y79.16 E.01203
G1 X170.67 Y78.939 E.02078
G1 X170.201 Y78.86 E.01808
G1 X169.694 Y78.912 E.01937
G1 X169.213 Y79.111 E.01978
G1 X168.792 Y79.433 E.02014
G1 X168.603 Y79.669 E.01149
G1 X168.312 Y80.14 E.02104
G1 X168.139 Y80.66 E.02083
G1 X168.084 Y81.158 E.01904
G1 X168.123 Y81.533 E.01433
G1 X168.235 Y81.939 E.01601
G1 X168.521 Y82.386 E.02017
G1 X168.313 Y82.427 E.00806
G1 X167.843 Y82.658 E.0199
G1 X167.45 Y83.032 E.02062
G1 X167.317 Y83.218 E.00869
G1 X167.088 Y83.69 E.01994
G1 X166.971 Y84.182 E.01922
G1 X166.993 Y84.707 E.01997
G1 X167.073 Y85.04 E.01302
G1 X167.249 Y85.362 E.01395
G1 X166.902 Y85.492 E.01408
G1 X166.635 Y85.727 E.01352
G1 X166.458 Y85.963 E.01121
G1 X166.164 Y86.609 E.02698
G1 X165.835 Y87.577 E.03886
G1 X165.769 Y87.955 E.01458
G1 X165.822 Y88.439 E.0185
G1 X165.923 Y88.69 E.01028
G1 X166.086 Y88.872 E.00929
G1 X165.847 Y88.915 E.00923
G1 X165.429 Y89.1 E.01737
G1 X165.173 Y89.418 E.01552
G1 X164.992 Y89.84 E.01745
G1 X164.945 Y90.302 E.01765
G1 X165.026 Y90.583 E.01111
G1 X165.31 Y91.101 E.02245
G1 X165.668 Y91.616 E.02384
G1 X165.492 Y91.575 E.00687
G1 X165.028 Y91.584 E.01764
G1 X164.592 Y91.764 E.01793
G1 X164.288 Y92.06 E.01613
G1 X164.06 Y92.519 E.01948
G1 X164.033 Y93.023 E.01918
G1 X164.153 Y93.371 E.01399
G1 X164.353 Y93.671 E.0137
G1 X163.987 Y93.799 E.01474
G1 X163.68 Y94.044 E.01493
G1 X163.433 Y94.401 E.0165
G1 X163.302 Y94.849 E.01774
G1 X163.292 Y95.208 E.01365
G1 X163.383 Y95.53 E.01272
G1 X163.621 Y95.912 E.01711
G1 X163.224 Y95.998 E.01544
G1 X163.029 Y96.121 E.00876
G1 X162.715 Y96.539 E.01987
G1 X162.577 Y97.021 E.01906
G1 X162.604 Y97.492 E.01793
G1 X162.861 Y97.929 E.01927
;WIDTH:0.544096
G1 X162.999 Y98.069 E.00819
;WIDTH:0.588192
G1 X163.137 Y98.209 E.00891
;WIDTH:0.632288
G1 X163.275 Y98.35 E.00967
;WIDTH:0.660146
G1 X163.884 Y98.511 E.03233
;WIDTH:0.704186
G1 X164.573 Y98.525 E.03789
G1 X164.42 Y98.969 E.02582
G1 X164.333 Y99.324 E.0201
G1 X164.136 Y99.237 E.01184
G1 X163.772 Y99.106 E.02127
;WIDTH:0.660146
G1 X163.08 Y98.9 E.03706
;WIDTH:0.632288
G1 X162.941 Y98.925 E.00692
;WIDTH:0.588192
G1 X162.801 Y98.949 E.00644
;WIDTH:0.544096
G1 X162.661 Y98.973 E.00592
;WIDTH:0.499999
G1 X162.333 Y99.063 E.01293
G1 X161.947 Y99.366 E.01865
G1 X161.675 Y99.783 E.01892
G1 X161.476 Y100.357 E.02309
G1 X161.422 Y100.728 E.01425
G1 X161.533 Y101.25 E.02028
G1 X161.734 Y101.567 E.01427
G1 X161.48 Y101.66 E.01028
G1 X161.076 Y101.948 E.01886
G1 X160.884 Y102.203 E.01213
G1 X160.696 Y102.669 E.0191
G1 X160.615 Y103.097 E.01656
G1 X160.656 Y103.603 E.01929
G1 X160.777 Y103.86 E.0108
G1 X160.974 Y104.104 E.01192
G1 X160.567 Y104.293 E.01706
G1 X160.228 Y104.6 E.01738
G1 X159.949 Y104.919 E.01611
G1 X159.658 Y105.48 E.02402
G1 X159.516 Y105.964 E.01917
G1 X159.454 Y106.397 E.01662
G1 X159.479 Y106.902 E.01922
G1 X159.537 Y107.257 E.01367
G1 X159.737 Y107.805 E.02217
G1 X160.031 Y108.274 E.02104
G1 X160.466 Y108.671 E.02238
G1 X160.652 Y108.788 E.00835
G1 X161.211 Y109 E.02272
G1 X160.989 Y109.35 E.01575
G1 X160.734 Y109.875 E.02218
G1 X160.263 Y109.783 E.01824
G1 X159.692 Y109.781 E.0217
G1 X159.315 Y109.855 E.0146
G1 X158.861 Y110.006 E.01818
G1 X158.404 Y110.3 E.02065
G1 X158.059 Y110.674 E.01934
G1 X157.907 Y110.917 E.01089
G1 X157.66 Y111.542 E.02554
G1 X157.592 Y112.159 E.02359
G1 X157.667 Y112.663 E.01937
G1 X157.936 Y113.179 E.02212
G1 X157.64 Y113.217 E.01134
G1 X157.363 Y113.322 E.01126
G1 X157.058 Y113.575 E.01506
G1 X156.809 Y113.981 E.0181
G1 X156.711 Y114.456 E.01843
G1 X156.759 Y114.755 E.01151
G1 X156.964 Y115.223 E.01942
G1 X157.477 Y115.971 E.03447
G1 X157.198 Y115.919 E.01079
G1 X156.801 Y115.964 E.01519
G1 X156.404 Y116.167 E.01695
G1 X156.102 Y116.491 E.01683
G1 X155.899 Y116.911 E.01773
G1 X155.454 Y118.252 E.0537
G1 X155.354 Y118.741 E.01897
G1 X155.348 Y118.964 E.00848
G1 X155.44 Y119.607 E.02469
G1 X154.847 Y120.244 E.03308
G1 X154.625 Y120.7 E.01928
G1 X154.347 Y121.489 E.03179
G1 X154.176 Y122.083 E.02349
G1 X154.12 Y122.571 E.01867
G1 X154.262 Y123.097 E.02071
G1 X154.402 Y123.26 E.00817
G1 X154.17 Y123.361 E.00962
G1 X153.873 Y123.586 E.01416
G1 X153.534 Y123.961 E.01921
G1 X153.258 Y124.532 E.0241
G1 X153.127 Y125.191 E.02554
G1 X153.154 Y125.776 E.02226
G1 X153.295 Y126.249 E.01876
G1 X153.557 Y126.688 E.01943
G1 X153.292 Y126.671 E.01009
G1 X152.703 Y126.905 E.02409
G1 X152.469 Y127.079 E.01108
G1 X152.356 Y127.26 E.00811
G1 X152.19 Y127.734 E.01909
G1 X152.169 Y128.049 E.012
G1 X152.329 Y128.416 E.01522
G1 X152.728 Y129.187 E.03299
G1 X152.85 Y129.842 E.02532
G1 X152.944 Y130.082 E.0098
G1 X153.218 Y130.502 E.01906
G1 X153.466 Y130.685 E.01171
G1 X153.963 Y130.805 E.01943
G1 X154.286 Y130.797 E.01228
G1 X154.755 Y130.573 E.01975
G1 X155.081 Y130.191 E.01909
G1 X155.173 Y129.922 E.01081
G1 X155.854 Y130.153 E.02733
G1 X156.477 Y130.347 E.0248
G1 X156.94 Y130.364 E.01761
G1 X157.4 Y130.248 E.01803
G1 X157.641 Y130.074 E.0113
G1 X157.856 Y129.813 E.01285
G1 X158.051 Y129.346 E.01923
G1 X158.077 Y129.026 E.0122
G1 X158.02 Y128.705 E.01239
G1 X157.727 Y128.25 E.02057
G1 X157.491 Y128.041 E.01198
G1 X157.926 Y127.856 E.01797
G1 X158.479 Y127.428 E.02658
G1 X158.873 Y126.88 E.02565
G1 X159.083 Y126.328 E.02245
G1 X159.164 Y125.764 E.02166
G1 X159.118 Y125.177 E.02238
G1 X158.921 Y124.615 E.02263
G1 X158.74 Y124.327 E.01293
G1 X159.102 Y124.3 E.0138
G1 X159.562 Y124.145 E.01845
G1 X159.873 Y123.812 E.01732
G1 X160.09 Y123.349 E.01943
G1 X160.128 Y122.992 E.01364
G1 X160.101 Y122.729 E.01005
G1 X159.864 Y122.275 E.01946
G1 X159.648 Y122.028 E.01247
;WIDTH:0.537978
G1 X159.494 Y121.903 E.00816
;WIDTH:0.575957
G1 X159.341 Y121.779 E.00873
;WIDTH:0.613935
G1 X159.187 Y121.654 E.00942
;WIDTH:0.66199
G1 X158.644 Y121.331 E.03252
G1 X158.278 Y121.074 E.02302
;WIDTH:0.654139
G1 X157.829 Y120.673 E.0306
;WIDTH:0.613525
G1 X157.136 Y120.045 E.04437
;WIDTH:0.598554
G1 X157.534 Y119.617 E.027
;WIDTH:0.59913
G1 X157.763 Y119.849 E.01508
;WIDTH:0.618178
G1 X158.268 Y120.297 E.03229
;WIDTH:0.653972
G1 X158.81 Y120.707 E.03453
;WIDTH:0.673027
G1 X159.333 Y120.988 E.03111
G1 X159.382 Y120.986 E.00257
;WIDTH:0.643481
G1 X159.432 Y120.984 E.0025
;WIDTH:0.613935
G1 X159.581 Y120.996 E.0071
;WIDTH:0.575957
G1 X159.731 Y121.007 E.00667
;WIDTH:0.537978
G1 X159.881 Y121.018 E.00619
;WIDTH:0.499999
G1 X160.159 Y121.017 E.01057
G1 X160.629 Y120.825 E.0193
G1 X160.851 Y120.688 E.00991
G1 X161.143 Y120.253 E.01991
G1 X161.243 Y119.797 E.01774
G1 X161.195 Y119.335 E.01765
G1 X160.974 Y118.943 E.0171
G1 X160.522 Y118.544 E.02291
G1 X160.09 Y118.294 E.01897
G1 X160.151 Y118.284 E.00235
G1 X160.543 Y118.137 E.01591
G1 X160.757 Y117.917 E.01166
G1 X161.072 Y117.446 E.02154
G1 X161.309 Y116.767 E.02733
G1 X161.559 Y116.76 E.00951
G1 X161.967 Y116.663 E.01594
G1 X162.211 Y116.531 E.01054
G1 X162.489 Y116.178 E.01708
G1 X162.637 Y115.725 E.01811
G1 X162.65 Y115.316 E.01555
G1 X162.559 Y115 E.0125
G1 X162.328 Y114.723 E.01371
G1 X162.083 Y114.54 E.01162
G1 X162.393 Y114.438 E.0124
G1 X162.805 Y114.233 E.01749
G1 X163.212 Y113.846 E.02135
G1 X163.458 Y113.407 E.01913
G1 X163.601 Y112.897 E.02013
G1 X163.634 Y112.459 E.01669
G1 X163.558 Y111.943 E.01982
G1 X163.379 Y111.488 E.01858
G1 X163.189 Y111.195 E.01327
G1 X162.946 Y110.919 E.01398
G1 X163.078 Y110.629 E.01211
G1 X163.211 Y110 E.02443
G1 X163.223 Y109.321 E.02581
G1 X163.776 Y109.295 E.02104
G1 X164.248 Y109.119 E.01915
G1 X164.663 Y108.835 E.01911
G1 X165.032 Y108.415 E.02125
G1 X165.322 Y107.892 E.02273
G1 X165.566 Y107.116 E.03092
G1 X165.609 Y106.539 E.02199
G1 X165.508 Y105.999 E.02088
G1 X165.288 Y105.586 E.01778
G1 X165.455 Y105.575 E.00636
G1 X165.721 Y105.475 E.0108
G1 X165.96 Y105.29 E.01149
G1 X166.215 Y104.935 E.01661
G1 X166.308 Y104.664 E.01089
G1 X166.257 Y104.25 E.01585
G1 X166.127 Y103.966 E.01187
G1 X166.298 Y103.858 E.00769
G1 X166.7 Y103.421 E.02257
G1 X166.794 Y103.154 E.01076
G1 X166.779 Y102.648 E.01924
G1 X166.668 Y102.344 E.0123
G1 X167.019 Y102.166 E.01496
G1 X167.24 Y101.954 E.01164
G1 X167.344 Y101.685 E.01096
G1 X167.376 Y101.181 E.01919
G1 X167.298 Y100.86 E.01256
G1 X167.08 Y100.53 E.01503
G1 X166.729 Y100.302 E.01591
G1 X166.409 Y100.201 E.01275
G1 X166.479 Y100.109 E.00439
G1 X166.759 Y99.607 E.02185
G1 X166.901 Y99.085 E.02056
G1 X166.907 Y98.754 E.01258
G1 X166.86 Y98.621 E.00536
G1 X167.326 Y98.697 E.01794
G1 X167.686 Y98.685 E.01369
G1 X167.945 Y98.614 E.01021
G1 X168.392 Y98.354 E.01965
G1 X168.661 Y98.003 E.01681
G1 X168.815 Y97.562 E.01775
G1 X168.846 Y97.201 E.01377
G1 X168.809 Y96.955 E.00945
G1 X168.601 Y96.53 E.01798
G1 X168.37 Y96.266 E.01333
G1 X168.571 Y96.237 E.00772
G1 X168.85 Y96.138 E.01125
G1 X169.3 Y95.831 E.0207
G1 X169.507 Y95.521 E.01417
G1 X169.602 Y95.256 E.0107
G1 X169.666 Y94.641 E.0235
G1 X169.563 Y94.346 E.01188
G1 X169.255 Y93.897 E.02069
G1 X168.803 Y93.62 E.02015
G1 X169.057 Y93.42 E.01229
G1 X169.344 Y92.948 E.02099
G1 X169.544 Y92.451 E.02036
G1 X169.89 Y92.457 E.01315
G1 X170.316 Y92.314 E.01708
G1 X170.659 Y91.968 E.01852
G1 X170.855 Y91.504 E.01914
G1 X170.877 Y91.079 E.01617
G1 X170.795 Y90.776 E.01193
G1 X170.449 Y90.359 E.02059
G1 X170.697 Y90.243 E.01041
G1 X171.129 Y89.96 E.01963
G1 X171.461 Y89.582 E.01912
G1 X171.7 Y89.11 E.02011
G1 X171.857 Y88.509 E.02361
G1 X171.872 Y87.969 E.02053
G1 X171.724 Y87.403 E.02223
G1 X171.44 Y86.953 E.02022
G1 X171.867 Y86.814 E.01707
G1 X172.35 Y86.479 E.02234
G1 X172.655 Y86.102 E.01843
G1 X172.85 Y85.66 E.01836
G1 X172.949 Y85.302 E.01412
G1 X172.968 Y84.754 E.02084
G1 X172.825 Y84.226 E.02079
G1 X172.544 Y83.755 E.02084
G1 X173.082 Y83.547 E.02192
G1 X173.532 Y83.18 E.02207
G1 X173.826 Y82.742 E.02005
G1 X174.042 Y82.126 E.02481
G1 X174.086 Y81.608 E.01976
G1 X174.067 Y81.409 E.0076
G1 X174.264 Y81.444 E.0076
G1 X174.559 Y81.376 E.01151
G1 X174.948 Y81.131 E.01747
G1 X175.114 Y80.9 E.01081
G1 X175.433 Y80.164 E.03049
G1 X176.079 Y78.243 E.07703
G1 X176.09 Y77.693 E.02091
G1 X176.05 Y77.474 E.00846
G1 X175.787 Y77.136 E.01628
G1 X175.489 Y77.02 E.01215
G1 X175.706 Y76.774 E.01247
G1 X176.051 Y76.197 E.02555
G1 X176.183 Y75.858 E.01383
G1 X176.346 Y75.346 E.02042
G1 X176.407 Y74.812 E.02043
G1 X176.352 Y74.293 E.01984
G1 X176.246 Y73.977 E.01267
G1 X176.347 Y74.02 E.00417
G1 X176.898 Y74.186 E.02187
G1 X177.185 Y74.195 E.01091
G1 X177.719 Y74.024 E.02131
G1 X177.983 Y73.862 E.01177
G1 X178.142 Y73.62 E.01101
G1 X178.333 Y73.084 E.02163
G1 X178.294 Y72.658 E.01626
G1 X178.137 Y72.281 E.01552
G1 X177.999 Y72.091 E.00892
G1 X177.578 Y71.791 E.01965
G1 X177.661 Y71.464 E.01282
G1 X177.696 Y70.926 E.02049
G1 X177.656 Y70.691 E.00906
G1 X177.44 Y70.157 E.02189
G1 X177.511 Y70.153 E.0027
G1 X177.769 Y70.058 E.01045
G1 X178.063 Y69.844 E.01382
G1 X178.272 Y69.509 E.01501
G1 X178.363 Y69.219 E.01155
G1 X178.819 Y69.873 E.0303
G1 X179.831 Y71.174 E.06264
G1 X180.838 Y72.503 E.06337
G1 X181.484 Y73.492 E.0449
G1 X182.035 Y74.672 E.0495
G1 X182.41 Y75.669 E.04048
G1 X182.84 Y76.896 E.04941
G1 X183.22 Y78.093 E.04773
G1 X183.524 Y79.379 E.05022
G1 X183.671 Y80.532 E.04418
G1 X183.746 Y82.204 E.06361
G1 X183.754 Y84.219 E.07658
G1 X183.727 Y85.861 E.06241
G1 X183.671 Y87.163 E.04953
G1 X183.543 Y88.507 E.05131
G1 X183.208 Y90.101 E.06191
G1 X182.588 Y91.845 E.07035
G1 X181.913 Y93.385 E.06391
G1 X180.99 Y95.682 E.09408
G1 X180.602 Y96.826 E.04591
G1 X180.201 Y98.273 E.05707
G1 X179.796 Y99.954 E.06572
G1 X179.289 Y102.269 E.09007
G1 X178.8 Y104.61 E.09089
G1 X178.466 Y105.901 E.05068
G1 X177.245 Y109.864 E.15761
G1 X176.459 Y112.633 E.1094
G1 X176.063 Y113.924 E.05132
G1 X175.525 Y115.543 E.06484
G1 X175.044 Y116.892 E.05443
G1 X174.599 Y118.022 E.04616
G1 X173.914 Y119.423 E.05927
G1 X172.815 Y121.085 E.07573
G1 X171.604 Y122.578 E.07306
G1 X170.7 Y123.725 E.05551
G1 X168.714 Y126.53 E.13062
G1 X167.997 Y127.454 E.04445
G1 X167.253 Y128.319 E.04336
G1 X166.093 Y129.571 E.06487
G1 X165.1 Y130.586 E.05397
